Newaita-dark/.places-manjaro/64/folder-downloads.svg

<?xml version="1.0" encoding="UTF-8"?>
<svg xmlns="http://www.w3.org/2000/svg" xmlns:xlink="http://www.w3.org/1999/xlink" width="64px" height="64px" viewBox="0 0 64 64" version="1.1">
<defs>
<linearGradient id="linear0" gradientUnits="userSpaceOnUse" x1="254" y1="233.5" x2="254" y2="254.666672" gradientTransform="matrix(0.125012,0,0,0.125012,-0.00000763012,26.877574)">
<stop offset="0" style="stop-color:rgb(0%,0%,0%);stop-opacity:0.27451;"/>
<stop offset="1" style="stop-color:rgb(0%,0%,0%);stop-opacity:0;"/>
</linearGradient>
<radialGradient id="radial0" gradientUnits="userSpaceOnUse" cx="450.908936" cy="189.579361" fx="450.908936" fy="189.579361" r="21.166656" gradientTransform="matrix(0.000000348341,-0.156265,-0.281277,-0.000000203077,108.230425,127.190669)">
<stop offset="0" style="stop-color:rgb(0%,0%,0%);stop-opacity:0.313726;"/>
<stop offset="0.222222" style="stop-color:rgb(0%,0%,0%);stop-opacity:0.27451;"/>
<stop offset="1" style="stop-color:rgb(0%,0%,0%);stop-opacity:0;"/>
</radialGradient>
<radialGradient id="radial1" gradientUnits="userSpaceOnUse" cx="450.908936" cy="189.579361" fx="450.908936" fy="189.579361" r="21.166656" gradientTransform="matrix(-0.000000348341,0.156265,0.281277,0.000000203077,-44.724356,-15.054954)">
<stop offset="0" style="stop-color:rgb(0%,0%,0%);stop-opacity:0.313726;"/>
<stop offset="0.222222" style="stop-color:rgb(0%,0%,0%);stop-opacity:0.27451;"/>
<stop offset="1" style="stop-color:rgb(0%,0%,0%);stop-opacity:0;"/>
</radialGradient>
<radialGradient id="radial2" gradientUnits="userSpaceOnUse" cx="450.908936" cy="189.579361" fx="450.908936" fy="189.579361" r="21.166656" gradientTransform="matrix(-0.000000348341,-0.156265,0.281277,-0.000000203077,-44.724356,127.190669)">
<stop offset="0" style="stop-color:rgb(0%,0%,0%);stop-opacity:0.313726;"/>
<stop offset="0.222222" style="stop-color:rgb(0%,0%,0%);stop-opacity:0.27451;"/>
<stop offset="1" style="stop-color:rgb(0%,0%,0%);stop-opacity:0;"/>
</radialGradient>
<radialGradient id="radial3" gradientUnits="userSpaceOnUse" cx="450.908936" cy="189.579361" fx="450.908936" fy="189.579361" r="21.166656" gradientTransform="matrix(0.000000348341,0.156265,-0.281277,0.000000203077,108.230422,-15.054955)">
<stop offset="0" style="stop-color:rgb(0%,0%,0%);stop-opacity:0.313726;"/>
<stop offset="0.222222" style="stop-color:rgb(0%,0%,0%);stop-opacity:0.27451;"/>
<stop offset="1" style="stop-color:rgb(0%,0%,0%);stop-opacity:0;"/>
</radialGradient>
<linearGradient id="linear1" gradientUnits="userSpaceOnUse" x1="254" y1="-147.5" x2="254" y2="-31.083334" gradientTransform="matrix(0.125012,0,0,0.125012,0.00000249951,26.877563)">
<stop offset="0" style="stop-color:rgb(64.313728%,64.313728%,64.313728%);stop-opacity:0;"/>
<stop offset="1" style="stop-color:rgb(100%,100%,100%);stop-opacity:0.196078;"/>
</linearGradient>
<linearGradient id="linear2" gradientUnits="userSpaceOnUse" x1="254" y1="233.5" x2="254" y2="-105.166656" gradientTransform="matrix(0.125012,0,0,0.125012,-0.00000362479,26.877566)">
<stop offset="0" style="stop-color:rgb(34.509805%,34.509805%,34.509805%);stop-opacity:0;"/>
<stop offset="1" style="stop-color:rgb(98.039216%,98.039216%,98.039216%);stop-opacity:0.196078;"/>
</linearGradient>
</defs>
<g id="surface1">
<path style=" stroke:none;fill-rule:nonzero;fill:url(#linear0);" d="M 7.9375 56.066406 L 55.566406 56.066406 L 55.566406 58.714844 L 7.9375 58.714844 Z M 7.9375 56.066406 "/>
<path style=" stroke:none;fill-rule:nonzero;fill:url(#radial0);" d="M 55.566406 56.066406 L 60.859375 56.066406 L 60.859375 53.421875 L 55.566406 53.421875 Z M 55.566406 56.066406 "/>
<path style=" stroke:none;fill-rule:nonzero;fill:url(#radial1);" d="M 7.9375 56.066406 L 2.644531 56.066406 L 2.644531 58.714844 L 7.9375 58.714844 Z M 7.9375 56.066406 "/>
<path style=" stroke:none;fill-rule:nonzero;fill:url(#radial2);" d="M 7.9375 56.066406 L 2.644531 56.066406 L 2.644531 53.421875 L 7.9375 53.421875 Z M 7.9375 56.066406 "/>
<path style=" stroke:none;fill-rule:nonzero;fill:url(#radial3);" d="M 55.566406 56.066406 L 60.859375 56.066406 L 60.859375 58.714844 L 55.566406 58.714844 Z M 55.566406 56.066406 "/>
<path style=" stroke:none;fill-rule:nonzero;fill:rgb(14.901961%,65.098041%,60.392159%);fill-opacity:1;" d="M 14.554688 8.4375 L 57.550781 8.4375 C 59.015625 8.4375 60.199219 9.621094 60.199219 11.085938 L 60.199219 21.007812 C 60.199219 22.46875 59.015625 23.652344 57.550781 23.652344 L 14.554688 23.652344 C 13.09375 23.652344 11.90625 22.46875 11.90625 21.007812 L 11.90625 11.085938 C 11.90625 9.621094 13.09375 8.4375 14.554688 8.4375 Z M 14.554688 8.4375 "/>
<path style=" stroke:none;fill-rule:nonzero;fill:url(#linear1);" d="M 14.554688 8.4375 L 57.550781 8.4375 C 59.015625 8.4375 60.199219 9.621094 60.199219 11.085938 L 60.199219 21.007812 C 60.199219 22.46875 59.015625 23.652344 57.550781 23.652344 L 14.554688 23.652344 C 13.09375 23.652344 11.90625 22.46875 11.90625 21.007812 L 11.90625 11.085938 C 11.90625 9.621094 13.09375 8.4375 14.554688 8.4375 Z M 14.554688 8.4375 "/>
<path style=" stroke:none;fill-rule:nonzero;fill:rgb(90.196079%,90.196079%,90.196079%);fill-opacity:0.392157;" d="M 14.554688 8.613281 C 13.085938 8.613281 11.90625 9.792969 11.90625 11.257812 L 11.90625 11.589844 C 11.90625 10.121094 13.085938 8.941406 14.554688 8.941406 L 57.550781 8.941406 C 59.019531 8.941406 60.199219 10.121094 60.199219 11.589844 L 60.199219 11.257812 C 60.199219 9.792969 59.019531 8.613281 57.550781 8.613281 Z M 14.554688 8.613281 "/>
<path style=" stroke:none;fill-rule:nonzero;fill:rgb(12.941177%,12.941177%,12.941177%);fill-opacity:1;" d="M 14.554688 8.25 C 12.988281 8.25 11.71875 9.519531 11.71875 11.085938 L 11.71875 21.007812 C 11.71875 22.574219 12.988281 23.839844 14.554688 23.839844 L 57.550781 23.839844 C 59.117188 23.839844 60.386719 22.574219 60.386719 21.007812 L 60.386719 11.085938 C 60.386719 9.519531 59.117188 8.25 57.550781 8.25 Z M 14.554688 8.625 L 57.550781 8.625 C 58.917969 8.625 60.011719 9.71875 60.011719 11.085938 L 60.011719 21.007812 C 60.011719 22.371094 58.917969 23.464844 57.550781 23.464844 L 14.554688 23.464844 C 13.1875 23.464844 12.09375 22.371094 12.09375 21.007812 L 12.09375 11.085938 C 12.09375 9.71875 13.1875 8.625 14.554688 8.625 Z M 14.554688 8.625 "/>
<path style=" stroke:none;fill-rule:nonzero;fill:rgb(9.803922%,72.941178%,61.176473%);fill-opacity:1;" d="M 5.292969 13.730469 C 3.828125 13.730469 2.644531 14.910156 2.644531 16.375 L 2.644531 53.421875 C 2.644531 54.886719 3.828125 56.066406 5.292969 56.066406 L 58.214844 56.066406 C 59.679688 56.066406 60.859375 54.886719 60.859375 53.421875 L 60.859375 20.34375 L 25.136719 20.34375 C 23.671875 20.34375 22.492188 19.164062 22.492188 17.699219 L 22.492188 13.730469 Z M 5.292969 13.730469 "/>
<path style=" stroke:none;fill-rule:nonzero;fill:url(#linear2);" d="M 5.292969 13.730469 C 3.828125 13.730469 2.644531 14.910156 2.644531 16.375 L 2.644531 53.421875 C 2.644531 54.886719 3.828125 56.066406 5.292969 56.066406 L 58.214844 56.066406 C 59.679688 56.066406 60.859375 54.886719 60.859375 53.421875 L 60.859375 20.34375 L 25.136719 20.34375 C 23.671875 20.34375 22.492188 19.164062 22.492188 17.699219 L 22.492188 13.730469 Z M 5.292969 13.730469 "/>
<path style=" stroke:none;fill-rule:nonzero;fill:rgb(0%,0%,0%);fill-opacity:0.196078;" d="M 5.292969 56.066406 C 3.828125 56.066406 2.644531 54.886719 2.644531 53.421875 L 2.644531 53.089844 C 2.644531 54.558594 3.828125 55.738281 5.292969 55.738281 L 58.214844 55.738281 C 59.679688 55.738281 60.859375 54.558594 60.859375 53.089844 L 60.859375 53.421875 C 60.859375 54.886719 59.679688 56.066406 58.214844 56.066406 Z M 5.292969 56.066406 "/>
<path style=" stroke:none;fill-rule:nonzero;fill:rgb(90.196079%,90.196079%,90.196079%);fill-opacity:0.392157;" d="M 5.292969 13.894531 C 3.828125 13.894531 2.644531 15.074219 2.644531 16.542969 L 2.644531 16.871094 C 2.644531 15.40625 3.828125 14.226562 5.292969 14.226562 L 22.492188 14.226562 L 22.492188 13.894531 Z M 5.292969 13.894531 "/>
<path style=" stroke:none;fill-rule:nonzero;fill:rgb(90.196079%,90.196079%,90.196079%);fill-opacity:0.392157;" d="M 24.972656 20.675781 C 23.507812 20.675781 22.328125 19.496094 22.328125 18.03125 L 22.328125 17.699219 C 22.328125 19.164062 23.507812 20.347656 24.972656 20.347656 L 60.859375 20.347656 L 60.859375 20.675781 Z M 24.972656 20.675781 "/>
<path style=" stroke:none;fill-rule:nonzero;fill:rgb(12.941177%,12.941177%,12.941177%);fill-opacity:1;" d="M 5.292969 13.542969 C 3.726562 13.542969 2.457031 14.808594 2.457031 16.375 L 2.457031 53.421875 C 2.457031 54.988281 3.726562 56.253906 5.292969 56.253906 L 58.214844 56.253906 C 59.78125 56.253906 61.046875 54.988281 61.046875 53.421875 L 61.046875 19.96875 L 25.136719 19.96875 C 23.773438 19.96875 22.679688 18.878906 22.679688 17.511719 L 22.679688 13.542969 Z M 5.292969 13.917969 L 22.304688 13.917969 L 22.304688 17.511719 C 22.304688 19.078125 23.570312 20.34375 25.136719 20.34375 L 60.671875 20.34375 L 60.671875 53.421875 C 60.671875 54.785156 59.578125 55.878906 58.214844 55.878906 L 5.292969 55.878906 C 3.925781 55.878906 2.832031 54.785156 2.832031 53.421875 L 2.832031 16.375 C 2.832031 15.011719 3.925781 13.917969 5.292969 13.917969 Z M 5.292969 13.917969 "/>
<path style=" stroke:none;fill-rule:nonzero;fill:rgb(0%,53.725493%,48.235294%);fill-opacity:1;" d="M 27.785156 25.703125 C 27.050781 25.703125 26.460938 26.292969 26.460938 27.027344 L 26.460938 40.257812 L 22.492188 40.257812 L 31.753906 46.871094 L 41.015625 40.257812 L 37.046875 40.257812 L 37.046875 27.027344 C 37.046875 26.292969 36.457031 25.703125 35.722656 25.703125 C 30.929688 25.703125 29.984375 25.703125 27.785156 25.703125 Z M 27.785156 25.703125 "/>
<path style=" stroke:none;fill-rule:nonzero;fill:rgb(0%,0%,0%);fill-opacity:0.235294;" d="M 27.785156 25.640625 C 27.050781 25.640625 26.460938 26.230469 26.460938 26.964844 L 26.460938 27.558594 C 26.460938 26.828125 27.050781 26.238281 27.785156 26.238281 C 29.984375 26.238281 30.929688 26.238281 35.722656 26.238281 C 36.457031 26.238281 37.046875 26.828125 37.046875 27.558594 L 37.046875 26.964844 C 37.046875 26.230469 36.457031 25.640625 35.722656 25.640625 C 30.929688 25.640625 29.984375 25.640625 27.785156 25.640625 Z M 22.492188 40.195312 L 23.328125 40.789062 L 26.460938 40.789062 L 26.460938 40.195312 Z M 37.046875 40.195312 L 37.046875 40.789062 L 40.179688 40.789062 L 41.015625 40.195312 Z M 37.046875 40.195312 "/>
<path style=" stroke:none;fill-rule:nonzero;fill:rgb(100%,100%,100%);fill-opacity:0.392157;" d="M 22.492188 40.851562 L 31.753906 47.46875 L 41.015625 40.851562 L 40.089844 40.851562 L 31.753906 46.804688 L 23.417969 40.851562 Z M 22.492188 40.851562 "/>
<path style="fill:none;stroke-width:3;stroke-linecap:round;stroke-linejoin:miter;stroke:rgb(12.941177%,12.941177%,12.941177%);stroke-opacity:1;stroke-miterlimit:4;" d="M 222.260025 -9.394634 C 216.385586 -9.394634 211.667287 -4.676335 211.667287 1.198104 L 211.667287 107.031748 L 179.920318 107.031748 L 254.006994 159.932946 L 328.093669 107.031748 L 296.3467 107.031748 L 296.3467 1.198104 C 296.3467 -4.676335 291.628401 -9.394634 285.753962 -9.394634 C 247.413873 -9.394634 239.852095 -9.394634 222.260025 -9.394634 Z M 222.260025 -9.394634 " transform="matrix(0.125012,0,0,0.125012,0,26.877566)"/>
</g>
</svg>

<svg xmlns="http://www.w3.org/2000/svg" width="64pt" height="64pt" viewBox="0 0 64 64"><defs><linearGradient id="a" gradientUnits="userSpaceOnUse" x1="254" y1="233.5" x2="254" y2="254.667" gradientTransform="translate(0 26.878) scale(.12501)"><stop offset="0" stop-opacity=".275"/><stop offset="1" stop-opacity="0"/></linearGradient><radialGradient id="b" gradientUnits="userSpaceOnUse" cx="450.909" cy="189.579" fx="450.909" fy="189.579" r="21.167" gradientTransform="matrix(0 -.15626 -.28128 0 108.23 127.19)"><stop offset="0" stop-opacity=".314"/><stop offset=".222" stop-opacity=".275"/><stop offset="1" stop-opacity="0"/></radialGradient><radialGradient id="c" gradientUnits="userSpaceOnUse" cx="450.909" cy="189.579" fx="450.909" fy="189.579" r="21.167" gradientTransform="matrix(0 .15626 .28128 0 -44.724 -15.055)"><stop offset="0" stop-opacity=".314"/><stop offset=".222" stop-opacity=".275"/><stop offset="1" stop-opacity="0"/></radialGradient><radialGradient id="d" gradientUnits="userSpaceOnUse" cx="450.909" cy="189.579" fx="450.909" fy="189.579" r="21.167" gradientTransform="matrix(0 -.15626 .28128 0 -44.724 127.19)"><stop offset="0" stop-opacity=".314"/><stop offset=".222" stop-opacity=".275"/><stop offset="1" stop-opacity="0"/></radialGradient><radialGradient id="e" gradientUnits="userSpaceOnUse" cx="450.909" cy="189.579" fx="450.909" fy="189.579" r="21.167" gradientTransform="matrix(0 .15626 -.28128 0 108.23 -15.055)"><stop offset="0" stop-opacity=".314"/><stop offset=".222" stop-opacity=".275"/><stop offset="1" stop-opacity="0"/></radialGradient><linearGradient id="f" gradientUnits="userSpaceOnUse" x1="254" y1="-147.5" x2="254" y2="-20.5" gradientTransform="translate(0 26.878) scale(.12501)"><stop offset="0" stop-color="#585858" stop-opacity="0"/><stop offset="1" stop-color="#fafafa" stop-opacity=".196"/></linearGradient><linearGradient id="g" gradientUnits="userSpaceOnUse" x1="254" y1="233.5" x2="254" y2="-147.5" gradientTransform="translate(0 26.878) scale(.12501)"><stop offset="0" stop-color="#585858" stop-opacity="0"/><stop offset="1" stop-color="#fafafa" stop-opacity=".196"/></linearGradient><linearGradient id="h" gradientUnits="userSpaceOnUse" x1="254" y1="-147.5" x2="254" y2="233.5" gradientTransform="translate(0 26.878) scale(.12501)"><stop offset="0" stop-color="#585858" stop-opacity="0"/><stop offset="1" stop-color="#fafafa" stop-opacity=".196"/></linearGradient></defs><path d="M7.938 56.066h47.628v2.649H7.937zm0 0" fill="url(#a)"/><path d="M55.566 56.066h5.293v-2.644h-5.293zm0 0" fill="url(#b)"/><path d="M7.938 56.066H2.644v2.649h5.292zm0 0" fill="url(#c)"/><path d="M7.938 56.066H2.644v-2.644h5.292zm0 0" fill="url(#d)"/><path d="M55.566 56.066h5.293v2.649h-5.293zm0 0" fill="url(#e)"/><path d="M14.555 8.438H57.55a2.646 2.646 0 0 1 2.648 2.648v9.922a2.645 2.645 0 0 1-2.648 2.644H14.555a2.647 2.647 0 0 1-2.649-2.644v-9.922a2.648 2.648 0 0 1 2.649-2.649zm0 0" fill="#424242"/><path d="M14.555 8.438H57.55a2.646 2.646 0 0 1 2.648 2.648v9.922a2.645 2.645 0 0 1-2.648 2.644H14.555a2.647 2.647 0 0 1-2.649-2.644v-9.922a2.648 2.648 0 0 1 2.649-2.649zm0 0" fill="url(#f)"/><path d="M14.555 8.438a2.64 2.64 0 0 0-2.649 2.648v.328a2.64 2.64 0 0 1 2.649-2.644H57.55a2.64 2.64 0 0 1 2.648 2.644v-.328a2.64 2.64 0 0 0-2.648-2.649zm0 0" fill="#e6e6e6" fill-opacity=".588"/><path d="M14.555 8.25a2.836 2.836 0 0 0-2.836 2.836v9.922a2.832 2.832 0 0 0 2.836 2.832H57.55a2.832 2.832 0 0 0 2.836-2.832v-9.922A2.836 2.836 0 0 0 57.55 8.25zm0 .375H57.55a2.45 2.45 0 0 1 2.46 2.46v9.923a2.45 2.45 0 0 1-2.46 2.457H14.555a2.45 2.45 0 0 1-2.461-2.457v-9.922a2.45 2.45 0 0 1 2.46-2.461zm0 0" fill="#212121"/><path d="M5.293 13.73a2.642 2.642 0 0 0-2.648 2.645v37.047a2.642 2.642 0 0 0 2.648 2.644h52.922a2.639 2.639 0 0 0 2.644-2.644V20.344H25.137a2.639 2.639 0 0 1-2.645-2.645V13.73zm0 0" fill="#1abc9c"/><path d="M5.293 13.73a2.642 2.642 0 0 0-2.648 2.645v37.047a2.642 2.642 0 0 0 2.648 2.644h52.922a2.639 2.639 0 0 0 2.644-2.644V20.344H25.137a2.639 2.639 0 0 1-2.645-2.645V13.73zm0 0" fill="url(#g)"/><path d="M5.293 56.066a2.642 2.642 0 0 1-2.648-2.644v-.332a2.643 2.643 0 0 0 2.648 2.648h52.922a2.64 2.64 0 0 0 2.644-2.648v.332a2.639 2.639 0 0 1-2.644 2.644zm0 0" fill-opacity=".196"/><path d="M5.293 13.73a2.642 2.642 0 0 0-2.648 2.645v.332a2.642 2.642 0 0 1 2.648-2.645h17.2v-.332zm0 0M24.973 20.512a2.64 2.64 0 0 1-2.645-2.649v-.328a2.637 2.637 0 0 0 2.645 2.645h35.886v.332zm0 0" fill="#e6e6e6" fill-opacity=".937"/><path d="M5.293 13.543a2.832 2.832 0 0 0-2.836 2.832v37.047a2.832 2.832 0 0 0 2.836 2.832h52.922a2.83 2.83 0 0 0 2.832-2.832V19.969h-35.91a2.447 2.447 0 0 1-2.457-2.457v-3.969zm0 .375h17.012v3.594a2.83 2.83 0 0 0 2.832 2.832h35.535v33.078a2.449 2.449 0 0 1-2.457 2.457H5.293a2.45 2.45 0 0 1-2.461-2.457V16.375a2.45 2.45 0 0 1 2.461-2.457zm0 0" fill="#212121"/><path d="M27.785 25.703a1.32 1.32 0 0 0-1.324 1.324v13.23h-3.969l9.262 6.614 9.262-6.613h-3.97v-13.23a1.32 1.32 0 0 0-1.323-1.325h-7.938zm0 0" fill="#424242"/><path d="M27.785 25.703a1.32 1.32 0 0 0-1.324 1.324v13.23h-3.969l9.262 6.614 9.262-6.613h-3.97v-13.23a1.32 1.32 0 0 0-1.323-1.325h-7.938zm0 0" fill="url(#h)"/><path d="M27.785 25.516a1.51 1.51 0 0 0-1.512 1.511V40.07h-4.367l9.848 7.032 9.844-7.032h-4.364V27.027c0-.836-.68-1.511-1.511-1.511h-7.938zm0 .375h7.938a1.13 1.13 0 0 1 1.136 1.136v13.418h3.57l-8.675 6.196-8.676-6.196h3.57V27.027a1.13 1.13 0 0 1 1.137-1.136zm0 0" fill="#212121"/></svg>
